X: 8695
T: Crotty's Glory
R: reel
M: 4/4
K: Dmajor
B|AFEF D3B|AFED FBBd|AFEF DFFD|EGFE DB,B,2|
AFEF D2FD|E2DE FBBc|d/c/B cA BAFD|EGFE DB,B,:|
|:D2A,D FDAF|EBBA BFEF|D2A,D FABc|dcBA FGEF|
D2A,D FDAF|EBBA B/c/d ec|dcBA FGEF|CDEF DB,B,2:|
|:dBBA B2Bc|d2df egfe|dBBA BAFA|GFED CEAc|
dBBA B2Bc|d2df egfe|fbag fgef|cdef dBB2:|

